assets/assign.svg

<svg fill="none" xmlns="http://www.w3.org/2000/svg" viewBox="0 0 589 382">
  <path fill="#5A51FF" stroke="#000" stroke-width="2" d="M415.882 282.882h98v98h-98z" />
  <path fill="#FE7362" stroke="#000" stroke-width="2" d="M410 277h98v98h-98z" />
  <path fill="#5A51FF" stroke="#000" stroke-width="2" d="M508 350.529v6.824h-98v-6.824z" />
  <mask id="aa" fill="#fff">
    <path fill-rule="evenodd" clip-rule="evenodd" d="M433.274 342.278c0-4.929 5.512-8.925 12.312-8.925s12.312 3.996 12.312 8.925h-24.624z" />
  </mask>
  <path fill-rule="evenodd" clip-rule="evenodd" d="M433.274 342.278c0-4.929 5.512-8.925 12.312-8.925s12.312 3.996 12.312 8.925h-24.624z" fill="#5A51FF" />
  <path d="M433.274 342.278v2h-2v-2h2zm24.624 0h2v2h-2v-2zm-12.312-6.925c-3.025 0-5.681.892-7.532 2.233-1.854 1.344-2.78 3.028-2.78 4.692h-4c0-3.265 1.829-6.044 4.432-7.93 2.605-1.889 6.105-2.995 9.88-2.995v4zm10.312 6.925c0-1.664-.927-3.348-2.78-4.692-1.851-1.341-4.508-2.233-7.532-2.233v-4c3.775 0 7.275 1.106 9.88 2.995 2.602 1.886 4.432 4.665 4.432 7.93h-4zm2 2h-24.624v-4h24.624v4z" fill="#000" mask="url(#aa)" />
  <path fill="#5A51FF" stroke="#000" stroke-width="2" d="M482.059 277h6.824v98h-6.824z" />
  <circle cx="462.676" cy="323.794" fill="#000" r="3.676" />
  <circle cx="428.853" cy="323.794" r="3.676" fill="#000" />
  <path fill="#5A51FF" stroke="#000" stroke-width="2" d="M489.882 144.882h98v98h-98z" />
  <path fill="#FE7362" stroke="#000" stroke-width="2" d="M484 139h98v98h-98z" />
  <path fill="#5A51FF" stroke="#000" stroke-width="2" d="M582 212.529v6.824h-98v-6.824z" />
  <mask id="ab" fill="#fff">
    <path fill-rule="evenodd" clip-rule="evenodd" d="M507.274 204.278c0-4.929 5.512-8.925 12.312-8.925s12.312 3.996 12.312 8.925h-24.624z" />
  </mask>
  <path fill-rule="evenodd" clip-rule="evenodd" d="M507.274 204.278c0-4.929 5.512-8.925 12.312-8.925s12.312 3.996 12.312 8.925h-24.624z" fill="#5A51FF" />
  <path d="M507.274 204.278v2h-2v-2h2zm24.624 0h2v2h-2v-2zm-12.312-6.925c-3.025 0-5.681.892-7.532 2.233-1.854 1.344-2.78 3.028-2.78 4.692h-4c0-3.265 1.829-6.044 4.432-7.93 2.605-1.889 6.105-2.995 9.88-2.995v4zm10.312 6.925c0-1.664-.927-3.348-2.78-4.692-1.851-1.341-4.508-2.233-7.532-2.233v-4c3.775 0 7.275 1.106 9.88 2.995 2.602 1.886 4.432 4.665 4.432 7.93h-4zm2 2h-24.624v-4h24.624v4z" fill="#000" mask="url(#ab)" />
  <path fill="#5A51FF" stroke="#000" stroke-width="2" d="M556.059 139h6.824v98h-6.824z" />
  <circle cx="536.676" cy="185.794" fill="#000" r="3.676" />
  <circle cx="502.853" cy="185.794" r="3.676" fill="#000" />
  <path fill="#5A51FF" stroke="#000" stroke-width="2" d="M415.882 6.882h98v98h-98z" />
  <path fill="#FE7362" stroke="#000" stroke-width="2" d="M410 1h98v98h-98z" />
  <path fill="#5A51FF" stroke="#000" stroke-width="2" d="M508 74.53v6.823h-98V74.53z" />
  <mask id="ac" fill="#fff">
    <path fill-rule="evenodd" clip-rule="evenodd" d="M433.274 57.353c0 4.929 5.512 8.925 12.312 8.925s12.312-3.996 12.312-8.925h-24.624z" />
  </mask>
  <path fill-rule="evenodd" clip-rule="evenodd" d="M433.274 57.353c0 4.929 5.512 8.925 12.312 8.925s12.312-3.996 12.312-8.925h-24.624z" fill="#5A51FF" />
  <path d="M433.274 57.353v-2h-2v2h2zm24.624 0h2v-2h-2v2zm-12.312 6.925c-3.025 0-5.681-.892-7.532-2.234-1.854-1.343-2.78-3.027-2.78-4.691h-4c0 3.265 1.829 6.043 4.432 7.93 2.605 1.888 6.105 2.995 9.88 2.995v-4zm10.312-6.925c0 1.664-.927 3.348-2.78 4.691-1.851 1.342-4.508 2.234-7.532 2.234v4c3.775 0 7.275-1.107 9.88-2.995 2.602-1.887 4.432-4.665 4.432-7.93h-4zm2-2h-24.624v4h24.624v-4z" fill="#000" mask="url(#ac)" />
  <path fill="#5A51FF" stroke="#000" stroke-width="2" d="M482.059 1h6.824v98h-6.824z" />
  <path fill-rule="evenodd" clip-rule="evenodd" d="M426.114 49.224l-1.666.046a4.166 4.166 0 118.33-.229l-1.666.046a2.5 2.5 0 10-4.998.137zM462.896 44.935a4.167 4.167 0 00-4.051 4.28l1.666-.046a2.501 2.501 0 014.999-.137l1.666-.046a4.167 4.167 0 00-4.28-4.05z" fill="#000" />
  <path fill="#5A51FF" stroke="#000" stroke-width="2" d="M159.66 101.82L2.048 139.27l37.45 157.611 157.612-37.45z" />
  <path fill="#FE7362" stroke="#000" stroke-width="2" d="M166.816 90.204L9.204 127.654l37.45 157.611 157.612-37.449z" />
  <path fill="#5A51FF" stroke="#000" stroke-width="2" d="M37.08 244.975l2.884 12.133 157.612-37.45-2.883-12.133z" />
  <mask id="ad" fill="#fff">
    <path fill-rule="evenodd" clip-rule="evenodd" d="M150.571 189.714c1.868 7.864-5.412 16.33-16.262 18.908-10.849 2.578-21.159-1.708-23.028-9.573l39.29-9.335z" />
  </mask>
  <path fill-rule="evenodd" clip-rule="evenodd" d="M150.571 189.714c1.868 7.864-5.412 16.33-16.262 18.908-10.849 2.578-21.159-1.708-23.028-9.573l39.29-9.335z" fill="#5A51FF" />
  <path d="M150.571 189.714l-.463-1.946 1.946-.462.463 1.945-1.946.463zm-39.29 9.335l-1.946.463-.462-1.946 1.946-.463.462 1.946zm22.566 7.627c5.06-1.202 9.207-3.761 11.846-6.83 2.641-3.071 3.681-6.516 2.932-9.67l3.892-.925c1.119 4.711-.547 9.431-3.791 13.203-3.247 3.775-8.164 6.738-13.954 8.114l-.925-3.892zm-20.62-8.089c.749 3.153 3.228 5.763 6.968 7.318 3.737 1.553 8.592 1.973 13.652.771l.925 3.892c-5.79 1.375-11.515.941-16.112-.97-4.595-1.91-8.206-5.375-9.325-10.086l3.892-.925zm-2.408-1.484l39.289-9.335.925 3.892-39.29 9.335-.924-3.892z" fill="#000" mask="url(#ad)" />
  <path fill="#5A51FF" stroke="#000" stroke-width="2" d="M51.84 117.523l-12.132 2.883 37.449 157.612 12.133-2.883z" />
  <path fill-rule="evenodd" clip-rule="evenodd" d="M158.913 174.029l2.676-.559a6.833 6.833 0 00-13.378 2.794l2.675-.559a4.1 4.1 0 118.027-1.676zM104.008 186.982l2.676-.559a6.834 6.834 0 00-13.378 2.794l2.675-.559a4.1 4.1 0 118.027-1.676z" fill="#000" />
  <path d="M275.5 189.5h-63m117-51C325.833 119.5 332 77 386 59m-56.5 186c-5.833 22.333 12.5 71.1 56.5 83.5m-9-139h86.5" stroke="#C4C4C4" stroke-width="4" stroke-dasharray="12 3" />
  <circle cx="342" cy="89" r="23" fill="#44BD7C" stroke="#C4C4C4" stroke-width="2" />
  <path d="M350.8 79.4l-12 12-5.6-5.6-4 4 9.6 9.6 16-16-4-4z" fill="#fff" />
  <circle cx="327" cy="188" r="58" fill="#fff" stroke="#C4C4C4" stroke-width="4" />
  <path d="M320.83 206.629c.045-.406.073-.818.073-1.236 0-.419-.028-.831-.074-1.237l-3.117-1.109a8.136 8.136 0 00-.605-1.459l1.418-2.985a11.11 11.11 0 00-1.75-1.752l-2.985 1.421a8.015 8.015 0 00-1.459-.605l-1.108-3.117a10.984 10.984 0 00-1.237-.075c-.419 0-.83.029-1.237.075l-1.108 3.117c-.51.155-.997.358-1.46.605l-2.985-1.421a11.039 11.039 0 00-1.752 1.752l1.422 2.983a8.065 8.065 0 00-.606 1.46l-3.117 1.111a11.19 11.19 0 00-.075 1.236c0 .418.029.83.075 1.236l3.117 1.11c.155.509.358.997.606 1.459l-1.421 2.985a10.984 10.984 0 001.752 1.75l2.982-1.42a8.14 8.14 0 001.46.607l1.109 3.116c.406.045.818.073 1.237.073.419 0 .83-.028 1.236-.074l1.11-3.117a8.197 8.197 0 001.459-.605l2.985 1.418a11.013 11.013 0 001.75-1.75l-1.419-2.984a7.98 7.98 0 00.607-1.46l3.116-1.108h.001zm-10.844 2.231a3.467 3.467 0 01-2.454-5.92 3.47 3.47 0 015.921 2.451 3.467 3.467 0 01-3.467 3.469zM361.682 190.544c.081-.735.133-1.481.133-2.24 0-.759-.052-1.505-.134-2.242l-5.65-2.009a14.894 14.894 0 00-1.097-2.646l2.57-5.41a20.046 20.046 0 00-3.172-3.174l-5.41 2.576a14.38 14.38 0 00-2.645-1.097l-2.008-5.65a19.992 19.992 0 00-2.242-.136c-.759 0-1.505.052-2.242.136l-2.008 5.65c-.924.28-1.807.648-2.646 1.097l-5.411-2.576c-1.174.935-2.238 2-3.175 3.174l2.576 5.408a14.652 14.652 0 00-1.097 2.645l-5.65 2.014a20.215 20.215 0 00-.135 2.241c0 .758.052 1.504.135 2.241l5.65 2.01c.281.923.648 1.807 1.097 2.646l-2.574 5.41c.935 1.174 2 2.237 3.175 3.172l5.406-2.574a14.6 14.6 0 002.645 1.099l2.011 5.649c.736.081 1.481.133 2.242.133.758 0 1.503-.052 2.24-.134l2.011-5.65a14.946 14.946 0 002.645-1.097l5.41 2.57a19.95 19.95 0 003.172-3.172l-2.572-5.409c.449-.834.819-1.721 1.1-2.645l5.649-2.01h.001zm-19.655 4.045a6.285 6.285 0 11-.004-12.57 6.285 6.285 0 01.004 12.57zM321.28 175.361c.06-.543.098-1.093.098-1.653s-.038-1.11-.099-1.654l-4.168-1.482a10.82 10.82 0 00-.809-1.951l1.897-3.991a14.851 14.851 0 00-2.34-2.342l-3.991 1.9a10.618 10.618 0 00-1.951-.809l-1.482-4.168a14.79 14.79 0 00-1.653-.1c-.56 0-1.11.038-1.654.1l-1.481 4.168c-.682.207-1.333.478-1.952.809l-3.991-1.9a14.738 14.738 0 00-2.342 2.342l1.9 3.989a10.736 10.736 0 00-.809 1.951l-4.168 1.485c-.061.543-.1 1.095-.1 1.654 0 .559.038 1.109.1 1.653l4.168 1.483c.206.681.478 1.333.809 1.952l-1.899 3.99c.69.867 1.475 1.65 2.342 2.34l3.987-1.899c.619.331 1.271.604 1.952.811l1.483 4.167c.543.06 1.093.098 1.654.098.559 0 1.109-.038 1.652-.099l1.484-4.168c.68-.207 1.332-.48 1.951-.809l3.991 1.896a14.796 14.796 0 002.34-2.34l-1.898-3.989c.332-.616.604-1.27.811-1.952l4.167-1.482h.001zm-14.498 2.983a4.64 4.64 0 01-3.279-1.357 4.637 4.637 0 113.279 1.357z" fill="#5A51FF" />
</svg>

<svg width="589" height="382" viewBox="0 0 589 382" fill="none" xmlns="http://www.w3.org/2000/svg">
<rect x="415.882" y="282.882" width="98" height="98" fill="#5A51FF" stroke="black" stroke-width="2"/>
<rect x="410" y="277" width="98" height="98" fill="#FE7362" stroke="black" stroke-width="2"/>
<rect x="508" y="350.529" width="6.82354" height="98" transform="rotate(90 508 350.529)" fill="#5A51FF" stroke="black" stroke-width="2"/>
<mask id="path-4-inside-1" fill="white">
<path fill-rule="evenodd" clip-rule="evenodd" d="M433.274 342.278C433.274 337.349 438.786 333.353 445.586 333.353C452.386 333.353 457.898 337.349 457.898 342.278H433.274Z"/>
</mask>
<path fill-rule="evenodd" clip-rule="evenodd" d="M433.274 342.278C433.274 337.349 438.786 333.353 445.586 333.353C452.386 333.353 457.898 337.349 457.898 342.278H433.274Z" fill="#5A51FF"/>
<path d="M433.274 342.278V344.278H431.274L431.274 342.278L433.274 342.278ZM457.898 342.278L459.898 342.278L459.898 344.278H457.898V342.278ZM445.586 335.353C442.561 335.353 439.905 336.245 438.054 337.586C436.2 338.93 435.274 340.614 435.274 342.278L431.274 342.278C431.274 339.013 433.103 336.234 435.706 334.348C438.311 332.459 441.811 331.353 445.586 331.353V335.353ZM455.898 342.278C455.898 340.614 454.971 338.93 453.118 337.586C451.267 336.245 448.61 335.353 445.586 335.353V331.353C449.361 331.353 452.861 332.459 455.466 334.348C458.068 336.234 459.898 339.013 459.898 342.278L455.898 342.278ZM457.898 344.278H433.274V340.278H457.898V344.278Z" fill="black" mask="url(#path-4-inside-1)"/>
<rect x="482.059" y="277" width="6.82352" height="98" fill="#5A51FF" stroke="black" stroke-width="2"/>
<ellipse cx="462.676" cy="323.794" rx="3.67647" ry="3.67647" fill="black"/>
<circle cx="428.853" cy="323.794" r="3.67647" fill="black"/>
<rect x="489.882" y="144.882" width="98" height="98" fill="#5A51FF" stroke="black" stroke-width="2"/>
<rect x="484" y="139" width="98" height="98" fill="#FE7362" stroke="black" stroke-width="2"/>
<rect x="582" y="212.529" width="6.82354" height="98" transform="rotate(90 582 212.529)" fill="#5A51FF" stroke="black" stroke-width="2"/>
<mask id="path-12-inside-2" fill="white">
<path fill-rule="evenodd" clip-rule="evenodd" d="M507.274 204.278C507.274 199.349 512.786 195.353 519.586 195.353C526.386 195.353 531.898 199.349 531.898 204.278H507.274Z"/>
</mask>
<path fill-rule="evenodd" clip-rule="evenodd" d="M507.274 204.278C507.274 199.349 512.786 195.353 519.586 195.353C526.386 195.353 531.898 199.349 531.898 204.278H507.274Z" fill="#5A51FF"/>
<path d="M507.274 204.278V206.278H505.274L505.274 204.278L507.274 204.278ZM531.898 204.278L533.898 204.278L533.898 206.278H531.898V204.278ZM519.586 197.353C516.561 197.353 513.905 198.245 512.054 199.586C510.2 200.93 509.274 202.614 509.274 204.278L505.274 204.278C505.274 201.013 507.103 198.234 509.706 196.348C512.311 194.459 515.811 193.353 519.586 193.353V197.353ZM529.898 204.278C529.898 202.614 528.971 200.93 527.118 199.586C525.267 198.245 522.61 197.353 519.586 197.353V193.353C523.361 193.353 526.861 194.459 529.466 196.348C532.068 198.234 533.898 201.013 533.898 204.278L529.898 204.278ZM531.898 206.278H507.274V202.278H531.898V206.278Z" fill="black" mask="url(#path-12-inside-2)"/>
<rect x="556.059" y="139" width="6.82352" height="98" fill="#5A51FF" stroke="black" stroke-width="2"/>
<ellipse cx="536.676" cy="185.794" rx="3.67647" ry="3.67647" fill="black"/>
<circle cx="502.853" cy="185.794" r="3.67647" fill="black"/>
<rect x="415.882" y="6.88235" width="98" height="98" fill="#5A51FF" stroke="black" stroke-width="2"/>
<rect x="410" y="1" width="98" height="98" fill="#FE7362" stroke="black" stroke-width="2"/>
<rect x="508" y="74.5294" width="6.82356" height="98" transform="rotate(90 508 74.5294)" fill="#5A51FF" stroke="black" stroke-width="2"/>
<mask id="path-20-inside-3" fill="white">
<path fill-rule="evenodd" clip-rule="evenodd" d="M433.274 57.3529C433.274 62.282 438.786 66.2777 445.586 66.2777C452.386 66.2777 457.898 62.282 457.898 57.3529H433.274Z"/>
</mask>
<path fill-rule="evenodd" clip-rule="evenodd" d="M433.274 57.3529C433.274 62.282 438.786 66.2777 445.586 66.2777C452.386 66.2777 457.898 62.282 457.898 57.3529H433.274Z" fill="#5A51FF"/>
<path d="M433.274 57.3529V55.3529H431.274L431.274 57.3529L433.274 57.3529ZM457.898 57.3529L459.898 57.3529L459.898 55.3529H457.898V57.3529ZM445.586 64.2777C442.561 64.2777 439.905 63.3862 438.054 62.0444C436.2 60.701 435.274 59.017 435.274 57.3529L431.274 57.3529C431.274 60.6179 433.103 63.3963 435.706 65.283C438.311 67.1714 441.811 68.2777 445.586 68.2777V64.2777ZM455.898 57.3529C455.898 59.017 454.971 60.701 453.118 62.0444C451.267 63.3862 448.61 64.2777 445.586 64.2777V68.2777C449.361 68.2777 452.861 67.1714 455.466 65.283C458.068 63.3963 459.898 60.6179 459.898 57.3529L455.898 57.3529ZM457.898 55.3529H433.274V59.3529H457.898V55.3529Z" fill="black" mask="url(#path-20-inside-3)"/>
<rect x="482.059" y="1" width="6.82352" height="98" fill="#5A51FF" stroke="black" stroke-width="2"/>
<path fill-rule="evenodd" clip-rule="evenodd" d="M426.114 49.2239L424.448 49.2696C424.385 46.9693 426.198 45.0534 428.499 44.9903C430.799 44.9272 432.715 46.7409 432.778 49.0412L431.112 49.0869C431.112 49.0869 431.112 49.0869 431.112 49.0869C431.074 47.7067 429.925 46.6185 428.544 46.6563C427.164 46.6942 426.076 47.8437 426.114 49.2239C426.114 49.2239 426.114 49.2239 426.114 49.2239Z" fill="black"/>
<path fill-rule="evenodd" clip-rule="evenodd" d="M462.896 44.9352C460.596 44.9983 458.782 46.9142 458.845 49.2145L460.511 49.1688C460.474 47.7886 461.562 46.6391 462.942 46.6013C464.322 46.5634 465.472 47.6516 465.51 49.0318L467.176 48.9861C467.113 46.6858 465.197 44.8722 462.896 44.9352Z" fill="black"/>
<rect x="-0.741745" y="1.20408" width="162" height="162" transform="matrix(-0.972914 0.231169 0.231169 0.972914 158.66 100.82)" fill="#5A51FF" stroke="black" stroke-width="2"/>
<rect x="-0.741745" y="1.20408" width="162" height="162" transform="matrix(-0.972914 0.231169 0.231169 0.972914 165.816 89.2041)" fill="#FE7362" stroke="black" stroke-width="2"/>
<rect x="1.20408" y="0.741745" width="12.4706" height="162" transform="matrix(0.231169 0.972914 0.972914 -0.231169 36.0804 243.975)" fill="#5A51FF" stroke="black" stroke-width="2"/>
<mask id="path-28-inside-4" fill="white">
<path fill-rule="evenodd" clip-rule="evenodd" d="M150.571 189.714C152.439 197.578 145.159 206.044 134.309 208.622C123.46 211.2 113.15 206.914 111.281 199.049L150.571 189.714Z"/>
</mask>
<path fill-rule="evenodd" clip-rule="evenodd" d="M150.571 189.714C152.439 197.578 145.159 206.044 134.309 208.622C123.46 211.2 113.15 206.914 111.281 199.049L150.571 189.714Z" fill="#5A51FF"/>
<path d="M150.571 189.714L150.108 187.768L152.054 187.306L152.517 189.251L150.571 189.714ZM111.281 199.049L109.335 199.512L108.873 197.566L110.819 197.103L111.281 199.049ZM133.847 206.676C138.907 205.474 143.054 202.915 145.693 199.846C148.334 196.775 149.374 193.33 148.625 190.176L152.517 189.251C153.636 193.962 151.97 198.682 148.726 202.454C145.479 206.229 140.562 209.192 134.772 210.568L133.847 206.676ZM113.227 198.587C113.976 201.74 116.455 204.35 120.195 205.905C123.932 207.458 128.787 207.878 133.847 206.676L134.772 210.568C128.982 211.943 123.257 211.509 118.66 209.598C114.065 207.688 110.454 204.223 109.335 199.512L113.227 198.587ZM110.819 197.103L150.108 187.768L151.033 191.66L111.743 200.995L110.819 197.103Z" fill="black" mask="url(#path-28-inside-4)"/>
<rect x="-0.741745" y="1.20408" width="12.4706" height="162" transform="matrix(-0.972914 0.231169 0.231169 0.972914 50.8406 116.523)" fill="#5A51FF" stroke="black" stroke-width="2"/>
<path fill-rule="evenodd" clip-rule="evenodd" d="M158.913 174.029L161.589 173.47C160.817 169.776 157.197 167.406 153.503 168.178C149.808 168.949 147.439 172.57 148.211 176.264L150.886 175.705C150.423 173.488 151.845 171.316 154.061 170.853C156.278 170.391 158.45 171.812 158.913 174.029Z" fill="black"/>
<path fill-rule="evenodd" clip-rule="evenodd" d="M104.008 186.982L106.684 186.423C105.912 182.729 102.292 180.359 98.5979 181.131C94.9036 181.902 92.5343 185.522 93.3057 189.217L95.9813 188.658C95.5184 186.441 96.9401 184.269 99.1566 183.806C101.373 183.343 103.545 184.765 104.008 186.982Z" fill="black"/>
<path d="M275.5 189.5H212.5M329.5 138.5C325.833 119.5 332 77 386 59M329.5 245C323.667 267.333 342 316.1 386 328.5M377 189.5H463.5" stroke="#C4C4C4" stroke-width="4" stroke-dasharray="12 3"/>
<circle cx="342" cy="89" r="23" fill="#44BD7C" stroke="#C4C4C4" stroke-width="2"/>
<path d="M350.8 79.4L338.8 91.4L333.2 85.8L329.2 89.8L338.8 99.4L354.8 83.4L350.8 79.4Z" fill="white"/>
<circle cx="327" cy="188" r="58" fill="white" stroke="#C4C4C4" stroke-width="4"/>
<path d="M320.83 206.629C320.875 206.223 320.903 205.811 320.903 205.393C320.903 204.974 320.875 204.562 320.829 204.156L317.712 203.047C317.557 202.537 317.353 202.05 317.107 201.588L318.525 198.603C318.009 197.956 317.422 197.368 316.775 196.851L313.79 198.272C313.325 198.023 312.836 197.82 312.331 197.667L311.223 194.55C310.816 194.504 310.405 194.475 309.986 194.475C309.567 194.475 309.156 194.504 308.749 194.55L307.641 197.667C307.131 197.822 306.644 198.025 306.181 198.272L303.196 196.851C302.548 197.367 301.961 197.955 301.444 198.603L302.866 201.586C302.618 202.049 302.415 202.537 302.26 203.046L299.143 204.157C299.098 204.562 299.068 204.975 299.068 205.393C299.068 205.811 299.097 206.223 299.143 206.629L302.26 207.739C302.415 208.248 302.618 208.736 302.866 209.198L301.445 212.183C301.961 212.831 302.549 213.417 303.197 213.933L306.179 212.513C306.642 212.761 307.13 212.964 307.639 213.12L308.748 216.236C309.154 216.281 309.566 216.309 309.985 216.309C310.404 216.309 310.815 216.281 311.221 216.235L312.331 213.118C312.84 212.963 313.327 212.759 313.79 212.513L316.775 213.931C317.423 213.415 318.009 212.828 318.525 212.181L317.106 209.197C317.354 208.736 317.558 208.247 317.713 207.737L320.829 206.629H320.83ZM309.986 208.86C309.53 208.86 309.079 208.771 308.659 208.597C308.238 208.422 307.855 208.167 307.533 207.845C306.883 207.195 306.517 206.313 306.517 205.393C306.517 204.473 306.882 203.591 307.532 202.94C308.182 202.29 309.065 201.924 309.984 201.924C310.904 201.924 311.786 202.289 312.437 202.939C313.088 203.589 313.453 204.471 313.453 205.391C313.454 206.311 313.088 207.193 312.438 207.844C311.788 208.494 310.906 208.86 309.986 208.86Z" fill="#5A51FF"/>
<path d="M361.682 190.544C361.763 189.809 361.815 189.063 361.815 188.304C361.815 187.545 361.763 186.799 361.681 186.062L356.031 184.053C355.749 183.129 355.38 182.246 354.934 181.407L357.504 175.997C356.569 174.824 355.505 173.759 354.332 172.823L348.922 175.399C348.079 174.946 347.193 174.579 346.277 174.302L344.269 168.652C343.532 168.569 342.786 168.516 342.027 168.516C341.268 168.516 340.522 168.568 339.785 168.652L337.777 174.302C336.853 174.582 335.97 174.95 335.131 175.399L329.72 172.823C328.546 173.758 327.482 174.823 326.545 175.997L329.121 181.405C328.672 182.244 328.305 183.128 328.024 184.05L322.374 186.064C322.292 186.799 322.239 187.548 322.239 188.305C322.239 189.063 322.291 189.809 322.374 190.546L328.024 192.556C328.305 193.479 328.672 194.363 329.121 195.202L326.547 200.612C327.482 201.786 328.547 202.849 329.722 203.784L335.128 201.21C335.966 201.659 336.85 202.028 337.773 202.309L339.784 207.958C340.52 208.039 341.265 208.091 342.026 208.091C342.784 208.091 343.529 208.039 344.266 207.957L346.277 202.307C347.199 202.025 348.083 201.656 348.922 201.21L354.332 203.78C355.507 202.845 356.569 201.78 357.504 200.608L354.932 195.199C355.381 194.365 355.751 193.478 356.032 192.554L361.681 190.544H361.682ZM342.027 194.589C341.201 194.589 340.384 194.427 339.621 194.111C338.858 193.795 338.165 193.332 337.581 192.749C336.402 191.57 335.74 189.971 335.739 188.304C335.739 186.637 336.401 185.038 337.58 183.859C338.758 182.68 340.357 182.017 342.024 182.017C343.692 182.016 345.291 182.678 346.47 183.857C347.649 185.036 348.311 186.634 348.312 188.302C348.312 189.969 347.65 191.568 346.472 192.747C345.293 193.926 343.694 194.589 342.027 194.589Z" fill="#5A51FF"/>
<path d="M321.28 175.361C321.34 174.818 321.378 174.268 321.378 173.708C321.378 173.148 321.34 172.598 321.279 172.054L317.111 170.572C316.904 169.891 316.632 169.239 316.302 168.621L318.199 164.63C317.508 163.764 316.724 162.979 315.859 162.288L311.868 164.188C311.246 163.854 310.592 163.583 309.917 163.379L308.435 159.211C307.892 159.15 307.341 159.111 306.782 159.111C306.222 159.111 305.672 159.149 305.128 159.211L303.647 163.379C302.965 163.586 302.314 163.857 301.695 164.188L297.704 162.288C296.837 162.978 296.053 163.764 295.362 164.63L297.262 168.619C296.931 169.238 296.659 169.89 296.453 170.57L292.285 172.055C292.224 172.598 292.185 173.15 292.185 173.709C292.185 174.268 292.223 174.818 292.285 175.362L296.453 176.845C296.659 177.526 296.931 178.178 297.262 178.797L295.363 182.787C296.053 183.654 296.838 184.437 297.705 185.127L301.692 183.228C302.311 183.559 302.963 183.832 303.644 184.039L305.127 188.206C305.67 188.266 306.22 188.304 306.781 188.304C307.34 188.304 307.89 188.266 308.433 188.205L309.917 184.037C310.597 183.83 311.249 183.557 311.868 183.228L315.859 185.124C316.725 184.434 317.508 183.649 318.199 182.784L316.301 178.795C316.633 178.179 316.905 177.525 317.112 176.843L321.279 175.361H321.28ZM306.782 178.344C306.173 178.344 305.57 178.225 305.007 177.992C304.444 177.759 303.933 177.417 303.503 176.987C302.633 176.117 302.144 174.938 302.144 173.708C302.143 172.478 302.632 171.299 303.501 170.429C304.371 169.559 305.55 169.07 306.78 169.07C308.01 169.07 309.189 169.558 310.059 170.427C310.929 171.297 311.418 172.476 311.418 173.706C311.418 174.936 310.93 176.116 310.06 176.985C309.191 177.855 308.012 178.344 306.782 178.344Z" fill="#5A51FF"/>
</svg>
